flags/language/en-in.svg

<svg width="512" height="512" viewBox="0 0 512 512" fill="none" xmlns="http://www.w3.org/2000/svg">
<path d="M512 128V384H0L1.11901e-05 128L512 128Z" fill="var(--flag-palette-white, #eeeeee)"/>
<path d="M512 368V512L0 512L6.29444e-06 368L512 368Z" fill="var(--flag-palette-dark-green, #496e2d)"/>
<path d="M512 -3.10255e-05V144L0 144L6.29444e-06 -5.34058e-05L512 -3.10255e-05Z" fill="var(--flag-palette-gold, #ff9811)"/>
<path fill-rule="evenodd" clip-rule="evenodd" d="M250.517 283.907L254.982 328.419C251.586 328.382 248.246 328.11 244.979 327.618C245.852 323.487 243.348 319.349 239.221 318.243C235.091 317.137 230.85 319.473 229.544 323.492C226.407 322.264 223.378 320.822 220.474 319.185L246.605 282.858L246.675 278.635C248.535 279.398 250.511 279.935 252.57 280.21L250.517 283.907ZM258.999 280.21L261.053 283.906L256.587 328.419C259.984 328.382 263.324 328.11 266.592 327.618C265.719 323.487 268.224 319.349 272.35 318.244C276.48 317.137 280.721 319.473 282.027 323.492C285.163 322.264 288.191 320.823 291.095 319.186L264.964 282.859L264.895 278.635C263.035 279.398 261.059 279.935 258.999 280.21ZM270.461 275.415L274.089 277.591L292.483 318.383C295.37 316.669 298.128 314.759 300.736 312.671C297.919 309.53 298.021 304.698 301.04 301.678C304.06 298.659 308.892 298.557 312.033 301.374C314.121 298.766 316.031 296.008 317.744 293.121L276.952 274.727L274.777 271.099C273.527 272.714 272.076 274.166 270.461 275.415ZM277.996 265.533L282.221 265.603L318.547 291.733C320.184 288.83 321.626 285.801 322.853 282.666C318.834 281.36 316.498 277.118 317.605 272.989C318.711 268.862 322.849 266.358 326.98 267.23C327.471 263.962 327.744 260.622 327.781 257.226L283.267 261.691L279.572 259.638C279.296 261.697 278.759 263.674 277.996 265.533ZM279.571 253.209L283.269 251.155L327.781 255.62C327.744 252.224 327.471 248.884 326.98 245.617C322.849 246.49 318.71 243.986 317.604 239.859C316.498 235.729 318.834 231.488 322.853 230.182C321.625 227.046 320.184 224.017 318.546 221.113L282.219 247.244L277.996 247.314C278.759 249.174 279.296 251.15 279.571 253.209ZM274.777 241.748L276.953 238.118L317.743 219.725C316.03 216.838 314.12 214.081 312.033 211.473C308.892 214.289 304.059 214.188 301.04 211.169C298.02 208.149 297.919 203.317 300.736 200.176C298.127 198.088 295.369 196.178 292.482 194.465L274.088 235.257L270.46 237.432C272.075 238.682 273.527 240.133 274.777 241.748ZM264.894 234.213L264.964 229.987L291.094 193.661C288.191 192.025 285.162 190.583 282.027 189.355C280.721 193.375 276.479 195.711 272.349 194.604C268.223 193.499 265.718 189.36 266.591 185.229C263.324 184.738 259.984 184.465 256.588 184.428L261.053 228.941L258.999 232.637C261.058 232.913 263.035 233.45 264.894 234.213ZM252.571 232.637L250.517 228.94L254.982 184.428C251.586 184.465 248.246 184.738 244.979 185.229C245.852 189.36 243.347 193.498 239.221 194.604C235.091 195.711 230.85 193.375 229.544 189.355C226.408 190.583 223.379 192.025 220.475 193.662L246.605 229.988L246.675 234.213C248.535 233.45 250.511 232.913 252.571 232.637ZM241.11 237.432L237.481 235.256L219.087 194.465C216.2 196.179 213.443 198.089 210.834 200.176C213.651 203.317 213.549 208.149 210.53 211.169C207.511 214.188 202.679 214.289 199.538 211.473C197.45 214.081 195.54 216.838 193.827 219.726L234.617 238.119L236.793 241.748C238.043 240.133 239.494 238.682 241.11 237.432ZM233.574 247.314L229.35 247.244L193.024 221.114C191.386 224.017 189.945 227.046 188.717 230.182C192.736 231.488 195.072 235.729 193.965 239.859C192.86 243.986 188.722 246.49 184.591 245.617C184.099 248.885 183.827 252.224 183.79 255.62L228.3 251.155L231.998 253.209C232.274 251.15 232.811 249.174 233.574 247.314ZM231.998 259.638L228.303 261.691L183.79 257.226C183.827 260.622 184.099 263.962 184.591 267.23C188.722 266.357 192.86 268.861 193.966 272.988C195.073 277.118 192.736 281.359 188.717 282.665C189.945 285.801 191.386 288.829 193.023 291.733L229.348 265.603L233.574 265.533C232.811 263.674 232.274 261.697 231.998 259.638ZM236.793 271.099L234.618 274.726L193.826 293.121C195.54 296.008 197.45 298.766 199.538 301.375C202.679 298.558 207.511 298.659 210.531 301.679C213.55 304.698 213.651 309.531 210.835 312.672C213.443 314.759 216.2 316.669 219.087 318.382L237.48 277.592L241.109 275.415C239.494 274.166 238.043 272.714 236.793 271.099ZM255.785 344.424C304.386 344.424 343.785 305.025 343.785 256.424C343.785 207.823 304.386 168.424 255.785 168.424C207.184 168.424 167.785 207.823 167.785 256.424C167.785 305.025 207.184 344.424 255.785 344.424Z" fill="var(--flag-palette-navy, #002266)"/>
<path d="M512 0L512 512L16.0005 512L192.001 336L192.001 320L224.001 288L288.001 288L288.001 224L512 0Z" fill="var(--flag-palette-white, #eeeeee)"/>
<path d="M320.001 368L320.001 512L464 512L320.001 368Z" fill="var(--flag-palette-blue, #0052b4)"/>
<path d="M48.0005 512L192.001 368L192.001 512L48.0005 512Z" fill="var(--flag-palette-blue, #0052b4)"/>
<path d="M368.001 320L512 464L512 320L368.001 320Z" fill="var(--flag-palette-blue, #0052b4)"/>
<path d="M512 192L512 48.0005L368.001 192L512 192Z" fill="var(--flag-palette-blue, #0052b4)"/>
<path d="M288.001 224L224.001 288L224.001 512L288.001 512L288.001 288L512 288L512 224L288.001 224Z" fill="var(--flag-palette-bright-red, #d80027)"/>
<path d="M512 480L352.001 320L320.001 320L512 512L512 480Z" fill="var(--flag-palette-bright-red, #d80027)"/>
<path d="M32.0005 512L192.001 352L192.001 320L0.000518799 512L32.0005 512Z" fill="var(--flag-palette-bright-red, #d80027)"/>
</svg>

<svg xmlns="http://www.w3.org/2000/svg" width="512" height="512" fill="none"><path fill="var(--flag-palette-white, #eeeeee)" d="M512 128v256H0V128z"/><path fill="var(--flag-palette-dark-green, #496e2d)" d="M512 368v144H0V368z"/><path fill="var(--flag-palette-gold, #ff9811)" d="M512 0v144H0V0z"/><path fill="var(--flag-palette-navy, #002266)" fill-rule="evenodd" d="m250.5 284 4.5 44.4q-5.2 0-10-.8a8 8 0 0 0-15.5-4.1 72 72 0 0 1-9-4.3l26.1-36.3v-4.3q3 1.2 6 1.6zm8.5-3.8 2 3.7-4.4 44.5q5 0 10-.8a8 8 0 0 1 15.4-4.1q4.8-1.8 9.1-4.3L265 282.9l-.1-4.3q-2.8 1.2-5.9 1.6m11.5-4.8 3.6 2.2 18.4 40.8q4.3-2.6 8.2-5.7a8 8 0 0 1 11.3-11.3q3.1-4 5.7-8.3L277 274.7l-2.2-3.6q-2 2.4-4.3 4.3m7.5-9.9 4.2.1 36.3 26.1q2.5-4.3 4.4-9a8 8 0 0 1 4-15.5q.8-4.9.9-10l-44.5 4.5-3.7-2q-.4 3-1.6 5.8m1.6-12.3 3.7-2 44.5 4.4q0-5-.8-10a8 8 0 0 1-4.1-15.4 72 72 0 0 0-4.4-9l-36.3 26-4.2.1q1.2 2.8 1.6 6m-4.8-11.5 2.2-3.6 40.7-18.4a72 72 0 0 0-5.7-8.2 8 8 0 0 1-11.3-11.3 72 72 0 0 0-8.2-5.7L274 235.3l-3.6 2.1q2.4 2 4.3 4.3m-10-7.5.2-4.2 26-36.3q-4.2-2.5-9-4.3a8 8 0 0 1-15.4-4.2q-5-.7-10-.8L261 229l-2.1 3.7q3 .4 5.9 1.6m-12.2-1.6-2-3.7 4.4-44.5q-5.2 0-10 .8a8 8 0 0 1-15.5 4.2 72 72 0 0 0-9 4.3l26.1 36.3v4.2q3-1.1 6-1.6m-11.5 4.8-3.6-2.1-18.4-40.8a72 72 0 0 0-8.3 5.7 8 8 0 0 1-11.3 11.3q-3 3.9-5.7 8.2l40.8 18.4 2.2 3.6q1.9-2.4 4.3-4.3m-7.5 10-4.2-.2-36.4-26q-2.4 4.2-4.3 9a8 8 0 0 1-4.1 15.4q-.8 5-.8 10l44.5-4.4 3.7 2q.4-3 1.6-5.9m-1.6 12.2-3.7 2-44.5-4.4q0 5.1.8 10a8 8 0 0 1 4.1 15.5q1.8 4.7 4.3 9l36.3-26.1h4.3q-1.2-3-1.6-6m4.8 11.5-2.2 3.6-40.8 18.4q2.6 4.4 5.7 8.3a8 8 0 0 1 11.3 11.3q4 3 8.3 5.7l18.4-40.8 3.6-2.2q-2.4-1.8-4.3-4.3m19 73.3a88 88 0 1 0 0-176 88 88 0 0 0 0 176" clip-rule="evenodd"/><path fill="var(--flag-palette-white, #eeeeee)" d="M512 0v512H16l176-176v-16l32-32h64v-64z"/><path fill="var(--flag-palette-blue, #0052b4)" d="M320 368v144h144zM48 512l144-144v144zm320-192 144 144V320zm144-128V48L368 192z"/><path fill="var(--flag-palette-bright-red, #d80027)" d="m288 224-64 64v224h64V288h224v-64z"/><path fill="var(--flag-palette-bright-red, #d80027)" d="M512 480 352 320h-32l192 192zM32 512l160-160v-32L0 512z"/></svg>
